packages/core/src/Assets/SvgComponents/header/partnership-programmes.svg

<svg width="24" height="24" viewBox="0 0 24 24" fill="none" xmlns="http://www.w3.org/2000/svg">
<path d="M3.26585 11.1022C3.43449 10.9679 3.6553 10.9181 3.86524 10.9671L3.82125 10.959L4.1888 10.9985C4.93767 11.0898 5.67727 11.252 6.40551 11.4861L6.76867 11.6092L7.12987 11.7443C7.42245 11.8848 7.57559 12.212 7.49482 12.5316L7.509 12.4515L9.09272 12.8475L11.7538 13.5056L13.9763 14.0482C14.854 14.2367 15.5344 14.9044 15.7549 15.7506L15.7815 15.8698L16.741 15.5553L16.9103 15.5017C17.489 15.3231 17.9323 15.217 18.3374 15.171C19.361 15.0548 20.1301 15.3488 20.6828 16.1327C20.8344 16.2966 20.8974 16.5238 20.8517 16.7424C20.806 16.9609 20.6574 17.1439 20.465 17.2278C18.6295 18.1105 16.1074 19.2142 14.5004 19.7641C13.5161 20.1055 12.4483 20.1226 11.452 19.8124L10.9984 19.6665C10.601 19.5368 10.1562 19.3869 9.67083 19.2197L9.04215 19.0013C8.53996 18.8256 8.02215 18.6415 7.50277 18.4547L6.0765 17.934L6.04221 18.0649C5.95866 18.2929 5.75374 18.4547 5.51918 18.4831L5.43001 18.4873H3.66001C3.2955 18.4873 3 18.1918 3 17.8273V11.6561C2.99927 11.4405 3.09721 11.2365 3.26585 11.1022ZM7.3245 13.1783L6.56325 16.0778L6.27451 17.2093L6.98065 17.4682C7.49631 17.6558 8.01738 17.8434 8.52971 18.0253L9.62079 18.4088L10.7356 18.7896C11.0795 18.9048 11.3944 19.0077 11.6765 19.0968C12.5182 19.3589 13.4217 19.3444 14.2561 19.055C15.7368 18.5483 18.0384 17.5494 19.8238 16.703L20.0828 16.5786L20.0537 16.5376C19.4345 15.6896 19.0231 15.6444 16.5729 16.4104L15.5252 16.745C15.2204 16.841 14.9031 16.9101 14.5747 16.9537C13.4394 17.1046 12.237 16.9527 11.0604 16.6091C10.8354 16.5433 10.6242 16.474 10.4293 16.4038L10.2399 16.3332C10.091 16.276 9.98391 16.2307 9.92423 16.2034C9.73584 16.1174 9.65286 15.8949 9.7389 15.7065C9.82494 15.5182 10.0474 15.4352 10.2358 15.5212L10.4336 15.6038L10.5091 15.6332C10.7355 15.7202 10.9914 15.8076 11.2707 15.8892C12.3554 16.206 13.4591 16.3454 14.4759 16.2103C14.6192 16.1912 14.7595 16.1667 14.8966 16.1368L15.0615 16.0963L15.0384 15.9776C14.9083 15.4235 14.4892 14.9757 13.9309 14.8103L10.6915 14.0164L7.3245 13.1783ZM3.74926 11.7051V17.7373H5.35576L5.75625 16.206L6.67169 12.627C6.6829 12.5831 6.70144 12.543 6.72566 12.5077L6.75301 12.4018L6.49964 12.3081C5.72229 12.0322 4.91693 11.8427 4.09812 11.743L3.74926 11.7051ZM12.5094 3.9694L12.9632 4.11391C13.2017 4.19112 13.4573 4.27561 13.7284 4.36682L14.9395 4.7823C15.6897 5.04396 16.4739 5.3242 17.2452 5.60442L17.8725 5.83425L17.9015 5.726C17.9732 5.47044 18.1912 5.28678 18.4463 5.25477L18.5325 5.24983L20.2699 5.24997C20.446 5.24521 20.6165 5.31184 20.7427 5.43473C20.8689 5.55762 20.9401 5.72631 20.94 5.90233L20.9383 12.047C20.9575 12.2487 20.8879 12.4488 20.7478 12.5951C20.6076 12.7415 20.4108 12.8197 20.1918 12.8081C19.0641 12.7003 17.9563 12.4402 16.8643 12.02C16.6068 11.8907 16.4622 11.6167 16.4878 11.3537L14.8706 10.9496L12.2121 10.2916L9.99638 9.74952C9.11871 9.56754 8.4354 8.90517 8.21054 8.06206L8.17351 7.89958L7.05542 8.26548C6.47747 8.44394 6.03356 8.5502 5.62788 8.59619C4.66334 8.70555 3.92392 8.45142 3.37285 7.76027L3.27173 7.62554C3.12897 7.46096 3.07132 7.23912 3.11588 7.02585C3.16045 6.81259 3.3021 6.63239 3.50484 6.53594L5.15542 5.79279C5.65106 5.57294 6.12009 5.36894 6.6463 5.1448L7.24211 4.89363C8.0929 4.53895 8.8397 4.24563 9.46 4.02628C10.4436 3.67849 11.5134 3.65852 12.5094 3.9694ZM18.6045 5.99908L18.5048 6.38025L18.4984 6.42227L17.3505 10.9343L17.2493 11.3646L17.5417 11.4711C18.296 11.7311 19.0736 11.9139 19.8554 12.016L20.19 12.0538V5.99983L18.6045 5.99908ZM9.71003 4.73338L9.23212 4.9077C8.73072 5.09558 8.16005 5.32352 7.5307 5.58589L6.94021 5.83481L6.12192 6.18715C5.85702 6.30252 5.59553 6.41774 5.32403 6.53856L3.87901 7.18858L3.90889 7.22956C4.5447 8.09948 4.97306 8.12344 7.58487 7.2962L8.43631 7.02248C8.74562 6.92407 9.06793 6.85368 9.40171 6.80957C10.5348 6.65983 11.7348 6.81244 12.9092 7.15666C13.1344 7.22265 13.3457 7.29222 13.5407 7.36279L13.7303 7.43361C13.8793 7.49108 13.9865 7.53654 14.0462 7.5639C14.2345 7.65016 14.3172 7.87273 14.2309 8.06101C14.1447 8.2493 13.9221 8.33202 13.7338 8.24576L13.4603 8.13336C13.2337 8.04595 12.9777 7.95828 12.6983 7.87638C11.6157 7.55909 10.5145 7.41903 9.49997 7.55311C9.35444 7.57234 9.21187 7.5972 9.07271 7.62774L8.89651 7.67008L8.90085 7.70601C8.9966 8.31451 9.43736 8.81405 10.0387 8.98762L10.6626 9.13993C11.7929 9.41535 12.9754 9.70648 14.1619 10.0008L16.6533 10.6214C16.712 10.3764 16.7803 10.0972 16.8577 9.78648L17.286 8.09676L17.6835 6.5625L16.989 6.30934C16.4767 6.1232 15.9588 5.93707 15.4491 5.75649L14.3422 5.3688L13.2275 4.9901C12.8835 4.8757 12.5684 4.77362 12.2858 4.6853C11.4445 4.42273 10.5409 4.43959 9.71003 4.73338Z" fill="url(#paint0_linear)"/>
<defs>
<linearGradient id="paint0_linear" x1="3" y1="18.5978" x2="19.5128" y2="3.61123" gradientUnits="userSpaceOnUse">
<stop stop-color="#FF444F"/>
<stop offset="1" stop-color="#FF6444"/>
</linearGradient>
</defs>
</svg>

<svg width="24" height="24" fill="none" xmlns="http://www.w3.org/2000/svg"><path d="M3.266 11.102a.705.705 0 01.6-.135l-.045-.008.368.04a11.96 11.96 0 012.217.487l.363.123.36.135c.293.14.447.468.366.788l.014-.08 1.584.396 2.66.658 2.223.542a2.348 2.348 0 011.779 1.703l.026.119.96-.315.17-.053c.578-.179 1.021-.285 1.426-.331 1.024-.116 1.793.178 2.346.962a.69.69 0 01-.218 1.095c-1.835.882-4.358 1.986-5.965 2.536a4.876 4.876 0 01-3.048.048l-.454-.146c-.397-.13-.842-.28-1.327-.446L9.042 19c-.502-.175-1.02-.36-1.54-.546l-1.425-.521-.035.13a.644.644 0 01-.523.42l-.089.003H3.66a.66.66 0 01-.66-.66v-6.17c0-.216.097-.42.266-.555zm4.059 2.076l-.762 2.9-.288 1.131.706.26c.515.187 1.036.374 1.549.556l1.09.384 1.116.38c.343.116.658.219.94.308a4.126 4.126 0 002.58-.042c1.48-.507 3.782-1.506 5.568-2.352l.259-.124-.03-.041c-.619-.848-1.03-.894-3.48-.128l-1.048.335a5.623 5.623 0 01-.95.209c-1.136.15-2.338-.001-3.515-.345a10.87 10.87 0 01-.63-.205l-.19-.07a5.925 5.925 0 01-.316-.13.375.375 0 11.312-.683l.198.083.075.03c.226.086.482.174.762.255 1.084.317 2.188.456 3.205.321.143-.019.283-.043.42-.073l.165-.04-.023-.12a1.601 1.601 0 00-1.107-1.167l-3.24-.794-3.367-.838zm-3.576-1.473v6.032h1.607l.4-1.531.916-3.579a.374.374 0 01.054-.12l.027-.105-.253-.094a11.242 11.242 0 00-2.402-.565l-.349-.038zm8.76-7.736l.454.145c.239.077.494.162.765.253l1.212.415c.75.262 1.534.542 2.305.822l.627.23.03-.108a.653.653 0 01.544-.471l.086-.005h1.738a.652.652 0 01.67.652l-.002 6.145a.697.697 0 01-.746.761 12.542 12.542 0 01-3.328-.788.684.684 0 01-.376-.666l-1.617-.404-2.659-.658-2.216-.542a2.34 2.34 0 01-1.785-1.688L8.174 7.9l-1.119.365c-.578.179-1.021.285-1.427.331-.965.11-1.704-.145-2.255-.836l-.101-.134a.697.697 0 01.233-1.09l1.65-.743c.496-.22.965-.424 1.491-.648l.596-.251c.85-.355 1.598-.648 2.218-.868a4.83 4.83 0 013.05-.057zM18.605 6l-.1.381-.007.042-1.148 4.512-.1.43.292.107c.754.26 1.532.443 2.313.545l.335.038V6h-1.585zM9.71 4.733l-.478.175a51.07 51.07 0 00-1.701.678l-.59.249-.82.352c-.264.116-.525.23-.797.352l-1.445.65.03.04c.636.87 1.064.894 3.676.067l.851-.274c.31-.098.632-.168.966-.212 1.133-.15 2.333.002 3.507.347.225.066.437.135.632.206l.19.07c.148.058.255.104.315.13a.375.375 0 11-.312.683l-.274-.113a9.741 9.741 0 00-.762-.257c-1.082-.317-2.184-.457-3.198-.323-.146.02-.288.044-.427.075l-.176.042.004.036a1.593 1.593 0 001.138 1.282l.624.152c1.13.275 2.312.566 3.499.86l2.491.621c.059-.245.127-.524.205-.835l.428-1.69.397-1.534-.694-.253a204.92 204.92 0 00-1.54-.553l-1.107-.387-1.115-.379c-.344-.114-.659-.216-.941-.305a4.08 4.08 0 00-2.576.048z" fill="url(#paint0_linear)"/><defs><linearGradient id="paint0_linear" x1="3" y1="18.598" x2="19.513" y2="3.611" gradientUnits="userSpaceOnUse"><stop stop-color="#FF444F"/><stop offset="1" stop-color="#FF6444"/></linearGradient></defs></svg>
